src/symbolic/status/bluetooth-paired-symbolic.svg

<?xml version="1.0" encoding="UTF-8" standalone="no"?>
<svg
   xmlns:dc="http://purl.org/dc/elements/1.1/"
   xmlns:cc="http://creativecommons.org/ns#"
   xmlns:rdf="http://www.w3.org/1999/02/22-rdf-syntax-ns#"
   xmlns:svg="http://www.w3.org/2000/svg"
   xmlns="http://www.w3.org/2000/svg"
   xmlns:sodipodi="http://sodipodi.sourceforge.net/DTD/sodipodi-0.dtd"
   xmlns:inkscape="http://www.inkscape.org/namespaces/inkscape"
   height="16"
   width="16"
   version="1.1"
   id="svg8"
   sodipodi:docname="bluetooth-paired-symbolic.svg"
   inkscape:version="0.92.4 (5da689c313, 2019-01-14)">
  <metadata
     id="metadata14">
    <rdf:RDF>
      <cc:Work
         rdf:about="">
        <dc:format>image/svg+xml</dc:format>
        <dc:type
           rdf:resource="http://purl.org/dc/dcmitype/StillImage" />
      </cc:Work>
    </rdf:RDF>
  </metadata>
  <defs
     id="defs12">
    <filter
       style="color-interpolation-filters:sRGB"
       id="filter7554">
      <feBlend
         mode="darken"
         in2="BackgroundImage"
         id="feBlend7556" />
    </filter>
  </defs>
  <sodipodi:namedview
     pagecolor="#ffffff"
     bordercolor="#666666"
     borderopacity="1"
     objecttolerance="10"
     gridtolerance="10"
     guidetolerance="10"
     inkscape:pageopacity="0"
     inkscape:pageshadow="2"
     inkscape:window-width="1366"
     inkscape:window-height="704"
     id="namedview10"
     showgrid="true"
     inkscape:zoom="10.429825"
     inkscape:cx="-5.9561129"
     inkscape:cy="6.9564801"
     inkscape:window-x="0"
     inkscape:window-y="34"
     inkscape:window-maximized="1"
     inkscape:current-layer="svg8">
    <inkscape:grid
       type="xygrid"
       id="grid849" />
  </sodipodi:namedview>
  <g
     transform="translate(-261.00018,268.01999)"
     style="display:inline;filter:url(#filter7554);enable-background:new"
     id="layer10" />
  <g
     transform="translate(-19.99998,-348.98001)"
     style="display:inline;enable-background:new"
     id="layer1" />
  <g
     transform="translate(-261.00018,268.01999)"
     style="display:inline;enable-background:new"
     id="layer14" />
  <g
     transform="translate(-261.00018,268.01999)"
     style="display:inline;enable-background:new"
     id="layer15" />
  <g
     transform="translate(-261.00018,268.01999)"
     style="display:inline;enable-background:new"
     id="g71291" />
  <g
     transform="translate(-19.99998,-198.98001)"
     style="display:inline;enable-background:new"
     id="layer2" />
  <g
     transform="translate(-19.99998,-198.98001)"
     style="display:inline;enable-background:new"
     id="g6058" />
  <g
     transform="translate(-261.00018,268.01999)"
     style="display:inline;enable-background:new"
     id="layer12" />
  <path
     style="fill:#bebebe;fill-opacity:1;stroke:none;enable-background:new"
     d="M 8.5 0 C 5.453 0 3 2.676 3 6 L 3 10 C 3 13.324 5.453 16 8.5 16 C 9.1942524 16 9.8542554 15.853468 10.464844 15.599609 A 3 3 0 0 1 10 14 A 3 3 0 0 1 13.898438 11.140625 C 13.963096 10.771399 14 10.390387 14 10 L 14 6 C 14 2.676 11.547 1.7763568e-15 8.5 0 z M 8 2 L 8.5 2 C 8.70775 2 8.89305 2.13292 8.96875 2.3125 L 11.84375 5.15625 L 12.25 5.53125 L 11.8125 5.875 L 9.25 8 L 11.8125 10.125 L 12.25 10.46875 L 11.84375 10.84375 L 8.96875 13.6875 C 8.94355 13.7474 8.88895 13.79856 8.84375 13.84375 C 8.75335 13.93415 8.6385 14 8.5 14 L 8 14 L 8 13.5 L 8 9.0625 L 5.84375 10.84375 C 5.75325 10.93425 5.63807 11 5.5 11 L 5 11 L 5 10.5 C 5 10.34678 5.079 10.21672 5.1875 10.125 L 7.75 8 L 5.3125 5.96875 C 5.2658 5.94905 5.2257 5.9072 5.1875 5.875 C 5.07896 5.7833 5 5.65322 5 5.5 L 5 5 L 5.5 5 C 5.62292 5 5.72543 5.0514 5.8125 5.125 C 5.8232 5.134 5.83385 5.14635 5.84375 5.15625 L 8 6.9375 L 8 2.5 L 8 2 z M 9 3.6875 L 9 6.9375 L 10.78125 5.46875 L 9 3.6875 z M 9 9.0625 L 9 12.3125 L 10.78125 10.53125 L 9 9.0625 z "
     id="rect5886" />
  <path
     inkscape:connector-curvature="0"
     id="path2"
     style="color:#bebebe;overflow:visible;isolation:auto;mix-blend-mode:normal;fill:#666666;marker:none"
     overflow="visible"
     d="m 15,14 a 2,2 0 1 1 -4,0 2,2 0 1 1 4,0 z" />
</svg>

<svg xmlns="http://www.w3.org/2000/svg" height="16" width="16"><defs><filter id="a" color-interpolation-filters="sRGB"><feBlend mode="darken" in2="BackgroundImage"/></filter></defs><path d="M8.5 0C5.453 0 3 2.676 3 6v4c0 3.324 2.453 6 5.5 6 .694 0 1.354-.147 1.965-.4A3 3 0 0 1 10 14a3 3 0 0 1 3.898-2.86c.065-.369.102-.75.102-1.14V6c0-3.324-2.453-6-5.5-6zM8 2h.5c.208 0 .393.133.469.313l2.875 2.843.406.375-.438.344L9.25 8l2.563 2.125.437.344-.406.375-2.875 2.844c-.025.06-.08.11-.125.156A.484.484 0 0 1 8.5 14H8V9.062l-2.156 1.782A.485.485 0 0 1 5.5 11H5v-.5c0-.153.079-.283.188-.375L7.75 8 5.312 5.969c-.046-.02-.086-.062-.125-.094A.494.494 0 0 1 5 5.5V5h.5c.123 0 .225.051.313.125l.03.031L8 6.938V2zm1 1.688v3.25l1.781-1.47L9 3.689zm0 5.374v3.25l1.781-1.78L9 9.061z" fill="#5d656b" enable-background="new"/><path style="isolation:auto;mix-blend-mode:normal;marker:none" overflow="visible" d="M15 14a2 2 0 1 1-4 0 2 2 0 1 1 4 0z" color="#5d656b" fill="#5d656b"/></svg>
